src/icons/trash.svg

<svg viewBox="0 0 20 20" fill="none" xmlns="http://www.w3.org/2000/svg">
    <path d="M6.47614 18.3334H13.5317C14.5524 18.3334 15.1485 17.7895 15.1932 16.7763L15.6626 6.01036H16.6907C17.0707 6.01036 17.3613 5.71234 17.3613 5.33982C17.3613 4.9673 17.0632 4.68418 16.6907 4.68418H13.4572V3.56661C13.4572 2.37454 12.6898 1.66675 11.4083 1.66675H8.57717C7.29569 1.66675 6.5283 2.37454 6.5283 3.56661V4.68418H3.3097C2.93718 4.68418 2.63916 4.97475 2.63916 5.33982C2.63916 5.7198 2.93718 6.01036 3.3097 6.01036H4.34531L4.82214 16.7763C4.8594 17.7895 5.45543 18.3334 6.47614 18.3334ZM8.07799 3.63367C8.07799 3.2984 8.30896 3.08233 8.68148 3.08233H11.3115C11.684 3.08233 11.915 3.2984 11.915 3.63367V4.68418H8.07799V3.63367ZM7.60861 16.0461C7.3106 16.0461 7.10198 15.8524 7.09453 15.5544L6.87102 7.64201C6.86357 7.34399 7.07218 7.14283 7.3851 7.14283C7.68312 7.14283 7.89173 7.33654 7.89918 7.63456L8.12269 15.5469C8.1376 15.845 7.92898 16.0461 7.60861 16.0461ZM10.0002 16.0461C9.68729 16.0461 9.47868 15.8524 9.47868 15.5544V7.63456C9.47868 7.34399 9.68729 7.14283 10.0002 7.14283C10.3131 7.14283 10.5292 7.34399 10.5292 7.63456V15.5544C10.5292 15.8524 10.3131 16.0461 10.0002 16.0461ZM12.3918 16.0536C12.0714 16.0536 11.8628 15.845 11.8777 15.5544L12.1012 7.63456C12.1087 7.33654 12.3173 7.14283 12.6153 7.14283C12.9282 7.14283 13.1369 7.34399 13.1294 7.64201L12.9059 15.5544C12.8984 15.8524 12.6898 16.0536 12.3918 16.0536Z" fill="currentColor"/>
</svg>

<svg viewBox="0 0 20 20" fill="none" xmlns="http://www.w3.org/2000/svg"><path d="M6.476 18.333h7.056c1.02 0 1.617-.543 1.661-1.557l.47-10.766h1.028c.38 0 .67-.298.67-.67a.655.655 0 0 0-.67-.656h-3.234V3.567c0-1.192-.767-1.9-2.049-1.9h-2.83c-1.282 0-2.05.708-2.05 1.9v1.117H3.31a.663.663 0 1 0 0 1.326h1.035l.477 10.766c.037 1.014.633 1.557 1.654 1.557zm1.602-14.7c0-.335.231-.55.603-.55h2.63c.373 0 .604.215.604.55v1.051H8.078v-1.05zm-.47 12.413c-.297 0-.506-.194-.513-.492L6.87 7.642c-.007-.298.201-.5.514-.5.298 0 .507.195.514.493l.224 7.912c.015.298-.194.5-.514.5zm2.392 0c-.313 0-.521-.194-.521-.492v-7.92c0-.29.208-.491.521-.491.313 0 .53.201.53.492v7.92c0 .297-.217.491-.53.491zm2.392.008c-.32 0-.53-.209-.514-.5l.223-7.92c.008-.297.216-.491.514-.491.313 0 .522.201.514.499l-.223 7.912a.49.49 0 0 1-.514.5z" fill="currentColor"/></svg>
